X: 7198
T: Circumstances
R: reel
M: 4/4
K: Eminor
|:B3 d BAAA|B/c/d BA BcBA|G2 dB AGBd|agfe bagf|
B3 d BAAA|BAdB edgf|a3 g faed|edBA B2 d^c:|
|:B3 d ABAG|ABde g/f/e ed|B2 BA dBAF|agfe bagf|B3 d ABAG|
ABde g/f/e ed|1 a3 g faed|edBA B2 d^c:|2 afge fded|eged B/A/G A2||

